HTML/img/Component/Neutralization.svg

<svg xmlns="http://www.w3.org/2000/svg" viewBox="0 0 348 348" fill="none" stroke-linecap="square" stroke-miterlimit="10"><clipPath id="a"><path d="M0 0h348v348H0V0z"/></clipPath><g clip-path="url(#a)"><path d="M0 0h348v348H0z" fill-opacity="0" fill="#000"/><path d="M-6 0h348v347.969H-6z" fill="#fff" stroke="#000"/><path d="M5.079 5.776h336.913v337.67H5.08z" fill-opacity="0" fill="#000"/><path d="M5.079 5.776h336.913v337.67H5.08z" stroke-linejoin="round" stroke-linecap="butt" stroke-width="2" stroke="#000"/><path d="M282.734 40.554c0-8.376 6.966-15.165 15.56-15.165 4.126 0 8.084 1.597 11.001 4.441 2.918 2.844 4.558 6.702 4.558 10.724 0 8.376-6.966 15.165-15.56 15.165-8.593 0-15.559-6.79-15.559-15.165z" fill="#fff"/><path d="M282.734 40.554c0-8.376 6.966-15.165 15.56-15.165 4.126 0 8.084 1.597 11.001 4.441 2.918 2.844 4.558 6.702 4.558 10.724 0 8.376-6.966 15.165-15.56 15.165-8.593 0-15.559-6.79-15.559-15.165z" stroke-linejoin="round" stroke-linecap="butt" stroke-width="2" stroke="#000"/></g><path stroke="#000" d="M238.925 71.418h94.791V331.12h-94.791z"/><path d="M236.978 313.59h45.447m-45.447-38.306H259.7m-22.073-36.034h45.448m-45.448-38.306h22.724m-22.724-41.552h45.448m-45.448-38.306h22.724M237.627 86.35h45.448" fill-rule="evenodd" stroke="#000" stroke-linecap="butt"/><text style="line-height:25px" x="312.94" y="322.03" font-weight="400" font-size="26.667" font-family="sans-serif" letter-spacing="0" word-spacing="0" fill="#000" stroke-linecap="butt"><tspan x="312.94" y="322.03">5</tspan></text><text style="line-height:25px" x="298.007" y="248.015" font-weight="400" font-size="26.667" font-family="sans-serif" letter-spacing="0" word-spacing="0" fill="#000" stroke-linecap="butt"><tspan x="298.007" y="248.015">10</tspan></text><text style="line-height:25px" x="296.709" y="167.507" font-weight="400" font-size="26.667" font-family="sans-serif" letter-spacing="0" word-spacing="0" fill="#000" stroke-linecap="butt"><tspan x="296.709" y="167.507">15</tspan></text><text style="line-height:25px" x="296.709" y="98.037" font-weight="400" font-size="26.667" font-family="sans-serif" letter-spacing="0" word-spacing="0" fill="#000" stroke-linecap="butt"><tspan x="296.709" y="98.037">20</tspan></text><path stroke="#000" d="M12.985 31.813h20.776v53.888H12.985zm190.933-.481h20.776V85.22h-20.776z"/><path stroke="#000" stroke-width=".977" d="M44.138 31.153H193.49v53.262H44.138z"/><path d="M27.918 40.903L17.53 61.03l11.037 16.23m181.025-1.373l10.783-19.918-10.715-16.446" fill-rule="evenodd" stroke="#000" stroke-linecap="butt"/><text style="line-height:30px" x="66.224" y="72.067" font-weight="400" font-size="37.333" font-family="sans-serif" letter-spacing="0" word-spacing="0" fill="#000" stroke-linecap="butt"><tspan x="66.224" y="72.067">NaOH</tspan></text><text style="line-height:25px" x="24.022" y="152.575" font-weight="400" font-size="26.667" font-family="sans-serif" letter-spacing="0" word-spacing="0" fill="#000" stroke-linecap="butt"><tspan x="24.022" y="152.575">Filter</tspan></text><path stroke="#000" stroke-width=".597" d="M27.918 158.418h55.836v53.262H27.918z"/><text style="line-height:25px" x="36.358" y="194.127" font-weight="400" font-size="26.667" font-family="sans-serif" letter-spacing="0" word-spacing="0" fill="#000" stroke-linecap="butt"><tspan x="36.358" y="194.127">ON</tspan></text><path stroke="#000" stroke-width="1.311" d="M103.588 130.196H219.74v123.317H103.588z"/><path stroke="#000" stroke-width=".824" d="M33.936 294.651h171.052v33.059H33.936z"/><text style="line-height:25px" x="74.664" y="320.082" font-weight="400" font-size="26.667" font-family="sans-serif" letter-spacing="0" word-spacing="0" fill="#000" stroke-linecap="butt"><tspan x="74.664" y="320.082">Titrate</tspan></text><path stroke="#000" d="M157.444 96.739v20.776h-53.888V96.739z"/><path d="M148.354 112.32l-20.126-10.387-16.232 11.037" fill-rule="evenodd" stroke="#000" stroke-linecap="butt"/><path stroke="#000" stroke-width=".976" d="M218.498 96.739v20.776h-51.315V96.739z"/><path d="M211.981 112.32l-20.127-10.387-16.23 11.037" fill-rule="evenodd" stroke="#000" stroke-linecap="butt"/><path stroke="#000" d="M159.172 285.022v-20.776h-53.888v20.776z"/><path d="M150.082 269.44l-20.127 10.388-16.231-11.037" fill-rule="evenodd" stroke="#000" stroke-linecap="butt"/><path stroke="#000" stroke-width=".973" d="M219.977 285.022v-20.776h-51.066v20.776z"/><path d="M213.709 269.44l-20.127 10.388-16.231-11.037" fill-rule="evenodd" stroke="#000" stroke-linecap="butt"/><text style="line-height:25px" x="116.216" y="216.201" font-weight="400" font-size="74.667" font-family="sans-serif" letter-spacing="0" word-spacing="0" fill="#000" stroke-linecap="butt"><tspan x="116.216" y="216.201">00</tspan></text></svg>

<svg xmlns="http://www.w3.org/2000/svg" viewBox="0.0 0.0 348.0 348.0" fill="none" stroke-linecap="square" stroke-miterlimit="10">
    <clipPath id="a">
        <path d="M0 0h348v348H0V0z"/>
    </clipPath>
    <g clip-path="url(#a)">
        <path d="M0 0h348v348H0z" fill-opacity="0" fill="#000"/>
        <path d="M-6 0h348v347.969H-6z" fill="#fff" stroke="#000"/>
        <path d="M5.079 5.776h336.913v337.67H5.08z" fill-opacity="0" fill="#000"/>
        <path d="M5.079 5.776h336.913v337.67H5.08z" stroke-linejoin="round" stroke-linecap="butt" stroke-width="2" stroke="#000"/>
        <path d="M282.734 40.554c0-8.376 6.966-15.165 15.56-15.165 4.126 0 8.084 1.597 11.001 4.441 2.918 2.844 4.558 6.702 4.558 10.724 0 8.376-6.966 15.165-15.56 15.165-8.593 0-15.559-6.79-15.559-15.165z" fill="#fff"/>
        <path d="M282.734 40.554c0-8.376 6.966-15.165 15.56-15.165 4.126 0 8.084 1.597 11.001 4.441 2.918 2.844 4.558 6.702 4.558 10.724 0 8.376-6.966 15.165-15.56 15.165-8.593 0-15.559-6.79-15.559-15.165z" stroke-linejoin="round" stroke-linecap="butt" stroke-width="2" stroke="#000"/>
    </g>
    <path stroke="#000" d="M238.925 71.418h94.791V331.12h-94.791z"/>
    <path d="M236.978 313.59h45.447M236.978 275.284H259.7M237.627 239.25h45.448M237.627 200.944h22.724M237.627 159.392h45.448M237.627 121.086h22.724M237.627 86.35h45.448" fill-rule="evenodd" stroke="#000" stroke-linecap="butt"/>
    <text style="line-height:25px" x="312.94" y="322.03" font-weight="400" font-size="26.667" font-family="sans-serif" letter-spacing="0" word-spacing="0" fill="#000" stroke-linecap="butt">
        <tspan x="312.94" y="322.03">5</tspan>
    </text>
    <text style="line-height:25px" x="298.007" y="248.015" font-weight="400" font-size="26.667" font-family="sans-serif" letter-spacing="0" word-spacing="0" fill="#000" stroke-linecap="butt">
        <tspan x="298.007" y="248.015">10</tspan>
    </text>
    <text style="line-height:25px" x="296.709" y="167.507" font-weight="400" font-size="26.667" font-family="sans-serif" letter-spacing="0" word-spacing="0" fill="#000" stroke-linecap="butt">
        <tspan x="296.709" y="167.507">15</tspan>
    </text>
    <text style="line-height:25px" x="296.709" y="98.037" font-weight="400" font-size="26.667" font-family="sans-serif" letter-spacing="0" word-spacing="0" fill="#000" stroke-linecap="butt">
        <tspan x="296.709" y="98.037">20</tspan>
    </text>
    <path stroke="#000" d="M12.985 31.813h20.776v53.888H12.985zM203.918 31.332h20.776V85.22h-20.776z"/>
    <path stroke="#000" stroke-width=".977" d="M44.138 31.153H193.49v53.262H44.138z"/>
    <path d="M27.918 40.903L17.53 61.03 28.567 77.26M209.592 75.887l10.783-19.918-10.715-16.446" fill-rule="evenodd" stroke="#000" stroke-linecap="butt"/>
    <text style="line-height:30px" x="66.224" y="72.067" font-weight="400" font-size="37.333" font-family="sans-serif" letter-spacing="0" word-spacing="0" fill="#000" stroke-linecap="butt">
        <tspan x="66.224" y="72.067">NaOH</tspan>
    </text>
    <text style="line-height:25px" x="24.022" y="152.575" font-weight="400" font-size="26.667" font-family="sans-serif" letter-spacing="0" word-spacing="0" fill="#000" stroke-linecap="butt">
        <tspan x="24.022" y="152.575">Filter</tspan>
    </text>
    <path stroke="#000" stroke-width=".597" d="M27.918 158.418h55.836v53.262H27.918z"/>
    <text style="line-height:25px" x="36.358" y="194.127" font-weight="400" font-size="26.667" font-family="sans-serif" letter-spacing="0" word-spacing="0" fill="#000" stroke-linecap="butt">
        <tspan x="36.358" y="194.127">ON</tspan>
    </text>
    <path stroke="#000" stroke-width="1.311" d="M103.588 130.196H219.74v123.317H103.588z"/>
    <path stroke="#000" stroke-width=".824" d="M33.936 294.651h171.052v33.059H33.936z"/>
    <text style="line-height:25px" x="74.664" y="320.082" font-weight="400" font-size="26.667" font-family="sans-serif" letter-spacing="0" word-spacing="0" fill="#000" stroke-linecap="butt">
        <tspan x="74.664" y="320.082">Titrate</tspan>
    </text>
    <path stroke="#000" d="M157.444 96.739v20.776h-53.888V96.739z"/>
    <path d="M148.354 112.32l-20.126-10.387-16.232 11.037" fill-rule="evenodd" stroke="#000" stroke-linecap="butt"/>
    <path stroke="#000" stroke-width=".976" d="M218.498 96.739v20.776h-51.315V96.739z"/>
    <path d="M211.981 112.32l-20.127-10.387-16.23 11.037" fill-rule="evenodd" stroke="#000" stroke-linecap="butt"/>
    <path stroke="#000" d="M159.172 285.022v-20.776h-53.888v20.776z"/>
    <path d="M150.082 269.44l-20.127 10.388-16.231-11.037" fill-rule="evenodd" stroke="#000" stroke-linecap="butt"/>
    <path stroke="#000" stroke-width=".973" d="M219.977 285.022v-20.776h-51.066v20.776z"/>
    <path d="M213.709 269.44l-20.127 10.388-16.231-11.037" fill-rule="evenodd" stroke="#000" stroke-linecap="butt"/>
    <text style="line-height:25px" x="116.216" y="216.201" font-weight="400" font-size="74.667" font-family="sans-serif" letter-spacing="0" word-spacing="0" fill="#000" stroke-linecap="butt">
        <tspan x="116.216" y="216.201">00</tspan>
    </text>
</svg>
